public/logos/BT.svg

<?xml version="1.0" encoding="UTF-8"?>
<svg xmlns="http://www.w3.org/2000/svg" xmlns:xlink="http://www.w3.org/1999/xlink" width="176pt" height="59pt" viewBox="0 0 176 59" version="1.1">
<g id="surface1">
<rect x="0" y="0" width="176" height="59" style="fill:rgb(69.923401%,85.954285%,9.780884%);fill-opacity:1;stroke:none;"/>
<path style=" stroke:none;fill-rule:evenodd;fill:rgb(6.269836%,13.639832%,30.566406%);fill-opacity:1;" d="M 29.984375 42.691406 L 29.984375 14.195312 L 36.777344 14.195312 L 36.777344 42.691406 Z M 29.984375 11.621094 L 29.984375 4.828125 L 36.777344 4.828125 L 36.777344 11.621094 L 29.984375 11.621094 "/>
<path style=" stroke:none;fill-rule:evenodd;fill:rgb(6.269836%,13.639832%,30.566406%);fill-opacity:1;" d="M 46.371094 42.691406 L 39.574219 42.691406 L 39.574219 14.195312 L 46.148438 14.195312 L 46.148438 19.453125 C 48.285156 16.390625 51.300781 13.59375 55.410156 13.59375 C 56.175781 13.59375 56.5625 13.648438 57 13.757812 L 57 20.167969 C 56.449219 20.0625 55.410156 20.0625 55.027344 20.0625 C 51.898438 20.0625 46.371094 22.964844 46.371094 28.664062 L 46.371094 42.691406 "/>
<path style=" stroke:none;fill-rule:evenodd;fill:rgb(6.269836%,13.639832%,30.566406%);fill-opacity:1;" d="M 65.964844 37.109375 L 70.40625 37.109375 C 75.15625 37.109375 78.566406 35.5625 78.566406 31.480469 C 78.566406 28.792969 77.125 25.746094 70.871094 25.746094 L 65.964844 25.746094 Z M 65.964844 20.273438 L 70.980469 20.273438 C 77.433594 20.273438 78 16.398438 78 15.15625 C 78 10.40625 73.089844 10.40625 71.597656 10.40625 L 65.964844 10.40625 Z M 58.835938 42.691406 L 58.835938 4.828125 L 70.980469 4.828125 C 74.171875 4.828125 85.023438 4.828125 85.023438 14.074219 C 85.023438 20.429688 80.066406 22.132812 77.535156 23.007812 C 80.425781 23.785156 85.902344 25.335938 85.902344 32.300781 C 85.902344 38.042969 81.566406 42.691406 71.851562 42.691406 L 58.835938 42.691406 "/>
<path style=" stroke:none;fill-rule:evenodd;fill:rgb(6.269836%,13.639832%,30.566406%);fill-opacity:1;" d="M 97.753906 30.523438 C 94.90625 31.566406 93.917969 32.878906 93.917969 34.90625 C 93.917969 37.757812 96.386719 38.363281 97.59375 38.363281 C 98.6875 38.363281 101.039062 37.976562 103.785156 35.183594 L 103.785156 28.171875 C 103.398438 28.5 103.234375 28.554688 102.03125 28.992188 Z M 105.101562 42.691406 L 104.328125 39.675781 C 102.691406 41.15625 100 43.289062 95.730469 43.289062 C 90.628906 43.289062 87.015625 40.007812 87.015625 35.457031 C 87.015625 32.496094 88.058594 29.046875 94.355469 26.90625 L 102.523438 24.167969 C 103.675781 23.785156 103.785156 23.726562 103.785156 22.910156 L 103.785156 21.761719 C 103.785156 19.347656 101.589844 18.632812 98.964844 18.632812 C 94.46875 18.632812 90.359375 21.375 88.769531 22.46875 L 88.769531 16.550781 C 90.578125 15.511719 94.082031 13.59375 100 13.59375 C 108.824219 13.59375 110.578125 18.03125 110.578125 23.457031 L 110.578125 42.691406 L 105.101562 42.691406 "/>
<path style=" stroke:none;fill-rule:evenodd;fill:rgb(6.269836%,13.639832%,30.566406%);fill-opacity:1;" d="M 14.367188 30.523438 C 11.519531 31.566406 10.53125 32.878906 10.53125 34.90625 C 10.53125 37.757812 12.996094 38.363281 14.199219 38.363281 C 15.296875 38.363281 17.652344 37.976562 20.394531 35.183594 L 20.394531 28.171875 C 20.011719 28.5 19.84375 28.554688 18.640625 28.992188 Z M 21.703125 42.691406 L 20.941406 39.675781 C 19.300781 41.15625 16.609375 43.289062 12.339844 43.289062 C 7.246094 43.289062 3.625 40.007812 3.625 35.457031 C 3.625 32.496094 4.664062 29.046875 10.972656 26.90625 L 19.132812 24.167969 C 20.285156 23.785156 20.394531 23.726562 20.394531 22.910156 L 20.394531 21.761719 C 20.394531 19.347656 18.203125 18.632812 15.574219 18.632812 C 11.078125 18.632812 6.96875 21.375 5.378906 22.46875 L 5.378906 16.550781 C 7.1875 15.511719 10.695312 13.59375 16.609375 13.59375 C 25.433594 13.59375 27.1875 18.03125 27.1875 23.457031 L 27.1875 42.691406 L 21.703125 42.691406 "/>
<path style=" stroke:none;fill-rule:evenodd;fill:rgb(6.269836%,13.639832%,30.566406%);fill-opacity:1;" d="M 113.375 42.691406 L 120.171875 42.691406 L 120.171875 4.828125 L 113.375 4.828125 L 113.375 42.691406 "/>
<path style=" stroke:none;fill-rule:evenodd;fill:rgb(6.269836%,13.639832%,30.566406%);fill-opacity:1;" d="M 125.820312 19.347656 L 121.679688 19.347656 L 121.679688 14.195312 L 125.820312 14.195312 L 125.820312 4.828125 L 132.617188 4.828125 L 132.617188 14.195312 L 137.769531 14.195312 L 137.769531 19.347656 L 132.617188 19.347656 L 132.617188 33.757812 C 132.617188 35.84375 132.894531 37.757812 136.015625 37.757812 C 136.839844 37.757812 137.4375 37.648438 137.984375 37.542969 L 137.984375 42.691406 C 137.113281 42.800781 136.179688 42.914062 134.808594 42.914062 C 127.246094 42.914062 125.820312 39.128906 125.820312 34.144531 L 125.820312 19.347656 "/>
<path style=" stroke:none;fill-rule:evenodd;fill:rgb(6.269836%,13.639832%,30.566406%);fill-opacity:1;" d="M 140.394531 42.691406 L 140.394531 14.195312 L 147.191406 14.195312 L 147.191406 42.691406 Z M 140.394531 11.625 L 140.394531 4.828125 L 147.191406 4.828125 L 147.191406 11.625 L 140.394531 11.625 "/>
<path style=" stroke:none;fill-rule:evenodd;fill:rgb(6.269836%,13.639832%,30.566406%);fill-opacity:1;" d="M 171.824219 21.867188 C 170.453125 20.714844 168.265625 18.90625 164.429688 18.90625 C 158.621094 18.90625 156.207031 23.785156 156.207031 28.449219 C 156.207031 30.414062 156.757812 37.976562 164.210938 37.976562 C 168.101562 37.976562 170.621094 36.222656 172.375 34.96875 L 172.375 40.992188 C 171.007812 41.710938 167.9375 43.289062 163.113281 43.289062 C 153.414062 43.289062 149.359375 36.007812 149.359375 28.449219 C 149.359375 20.550781 153.800781 13.59375 163.445312 13.59375 C 168.101562 13.59375 170.621094 15.011719 171.824219 15.679688 L 171.824219 21.867188 "/>
</g>
</svg>

<svg xmlns="http://www.w3.org/2000/svg" width="176pt" height="59pt" viewBox="0 0 176 59"><path d="M0 0h176v59H0z" style="fill:#b2db19;fill-opacity:1;stroke:none"/><path d="M29.984 42.691V14.195h6.793v28.496Zm0-31.07V4.828h6.793v6.793zM46.371 42.691h-6.797V14.195h6.574v5.258c2.137-3.062 5.153-5.86 9.262-5.86.766 0 1.153.055 1.59.165v6.41c-.55-.105-1.59-.105-1.973-.105-3.129 0-8.656 2.902-8.656 8.601zM65.965 37.11h4.441c4.75 0 8.16-1.547 8.16-5.63 0-2.687-1.441-5.734-7.695-5.734h-4.906Zm0-16.837h5.015c6.454 0 7.02-3.875 7.02-5.117 0-4.75-4.91-4.75-6.402-4.75h-5.633Zm-7.13 22.418V4.828H70.98c3.192 0 14.043 0 14.043 9.246 0 6.356-4.957 8.059-7.488 8.934 2.89.777 8.367 2.328 8.367 9.293 0 5.742-4.336 10.39-14.05 10.39zM97.754 30.523c-2.848 1.043-3.836 2.356-3.836 4.383 0 2.852 2.469 3.457 3.676 3.457 1.094 0 3.445-.386 6.191-3.18v-7.011c-.387.328-.55.383-1.754.82Zm7.348 12.168-.774-3.015c-1.637 1.48-4.328 3.613-8.598 3.613-5.101 0-8.714-3.281-8.714-7.832 0-2.96 1.043-6.41 7.34-8.55l8.167-2.739c1.153-.383 1.262-.441 1.262-1.258v-1.148c0-2.414-2.195-3.13-4.82-3.13-4.496 0-8.606 2.743-10.195 3.837V16.55c1.808-1.04 5.312-2.957 11.23-2.957 8.824 0 10.578 4.437 10.578 9.863v19.234zM14.367 30.523c-2.847 1.043-3.836 2.356-3.836 4.383 0 2.852 2.465 3.457 3.668 3.457 1.098 0 3.453-.386 6.196-3.18v-7.011c-.383.328-.551.383-1.754.82Zm7.336 12.168-.762-3.015c-1.64 1.48-4.332 3.613-8.601 3.613-5.094 0-8.715-3.281-8.715-7.832 0-2.96 1.04-6.41 7.348-8.55l8.16-2.739c1.152-.383 1.262-.441 1.262-1.258v-1.148c0-2.414-2.192-3.13-4.82-3.13-4.497 0-8.606 2.743-10.196 3.837V16.55c1.809-1.04 5.316-2.957 11.23-2.957 8.825 0 10.578 4.437 10.578 9.863v19.234zM113.375 42.691h6.797V4.828h-6.797zM125.82 19.348h-4.14v-5.153h4.14V4.828h6.797v9.367h5.153v5.153h-5.153v14.41c0 2.086.278 4 3.399 4 .824 0 1.422-.11 1.968-.215v5.148c-.87.11-1.804.223-3.175.223-7.563 0-8.989-3.785-8.989-8.77zM140.395 42.691V14.195h6.796v28.496Zm0-31.066V4.828h6.796v6.797zM171.824 21.867c-1.37-1.152-3.558-2.96-7.394-2.96-5.809 0-8.223 4.878-8.223 9.542 0 1.965.55 9.528 8.004 9.528 3.89 0 6.41-1.754 8.164-3.008v6.023c-1.367.719-4.437 2.297-9.262 2.297-9.699 0-13.754-7.281-13.754-14.84 0-7.898 4.442-14.855 14.086-14.855 4.657 0 7.176 1.418 8.38 2.086z" style="stroke:none;fill-rule:evenodd;fill:#10234e;fill-opacity:1"/></svg>
